src/assets/img/globalping/credits/polygons_1.svg

<svg width="510" height="289" viewBox="0 0 510 289" fill="none" xmlns="http://www.w3.org/2000/svg">
<path fill-rule="evenodd" clip-rule="evenodd" d="M357.003 38.8892L294.502 2.80385C292.645 1.73205 290.358 1.73205 288.502 2.80385L226 38.8892C224.144 39.961 223 41.9418 223 44.0854V116.256C223 118.4 224.144 120.38 226 121.452L288.502 157.538C290.358 158.609 292.645 158.609 294.502 157.538L357.003 121.452C358.86 120.38 360.003 118.4 360.003 116.256V44.0854C360.003 41.9418 358.86 39.961 357.003 38.8892ZM295.502 1.07179C293.026 -0.357268 289.977 -0.357263 287.502 1.0718L225 37.1571C222.525 38.5862 221 41.2272 221 44.0854V116.256C221 119.114 222.525 121.755 225 123.184L287.502 159.27C289.977 160.699 293.026 160.699 295.502 159.27L358.003 123.184C360.479 121.755 362.003 119.114 362.003 116.256V44.0854C362.003 41.2272 360.479 38.5862 358.003 37.1571L295.502 1.07179ZM504.38 38.8892L441.878 2.80385C440.022 1.73205 437.735 1.73205 435.878 2.80385L373.377 38.8892C371.52 39.961 370.377 41.9418 370.377 44.0854V116.256C370.377 118.4 371.52 120.38 373.377 121.452L435.878 157.538C437.735 158.609 440.022 158.609 441.878 157.538L504.38 121.452C506.236 120.38 507.38 118.4 507.38 116.256V44.0854C507.38 41.9418 506.236 39.961 504.38 38.8892ZM442.878 1.07179C440.403 -0.357268 437.353 -0.357263 434.878 1.0718L372.377 37.1571C369.901 38.5862 368.377 41.2272 368.377 44.0854V116.256C368.377 119.114 369.901 121.755 372.377 123.184L434.878 159.27C437.353 160.699 440.403 160.699 442.878 159.27L505.38 123.184C507.855 121.755 509.38 119.114 509.38 116.256V44.0854C509.38 41.2272 507.855 38.5862 505.38 37.1571L442.878 1.07179ZM73.5017 130.533L136.003 166.618C137.86 167.69 139.003 169.67 139.003 171.814V243.985C139.003 246.128 137.86 248.109 136.003 249.181L73.5017 285.266C71.6453 286.338 69.3581 286.338 67.5017 285.266L5.00001 249.181C3.1436 248.109 2 246.128 2 243.985V171.814C2 169.67 3.1436 167.69 5 166.618L67.5017 130.533C69.3581 129.461 71.6453 129.461 73.5017 130.533ZM66.5017 128.8C68.9769 127.371 72.0265 127.371 74.5017 128.8L137.003 164.886C139.479 166.315 141.003 168.956 141.003 171.814V243.985C141.003 246.843 139.479 249.484 137.003 250.913L74.5017 286.998C72.0265 288.427 68.9769 288.427 66.5017 286.998L4.00001 250.913C1.5248 249.484 0 246.843 0 243.985V171.814C0 168.956 1.52479 166.315 4 164.886L66.5017 128.8ZM430.533 166.254L368.032 130.168C366.175 129.096 363.888 129.096 362.032 130.168L299.53 166.254C297.674 167.325 296.53 169.306 296.53 171.45V243.62C296.53 245.764 297.674 247.745 299.53 248.817L362.032 284.902C363.888 285.974 366.175 285.974 368.032 284.902L430.533 248.817C432.39 247.745 433.533 245.764 433.533 243.62V171.45C433.533 169.306 432.39 167.325 430.533 166.254ZM369.032 128.436C366.557 127.007 363.507 127.007 361.032 128.436L298.53 164.522C296.055 165.951 294.53 168.592 294.53 171.45V243.62C294.53 246.479 296.055 249.12 298.53 250.549L361.032 286.634C363.507 288.063 366.557 288.063 369.032 286.634L431.533 250.549C434.009 249.12 435.533 246.479 435.533 243.62V171.45C435.533 168.592 434.009 165.951 431.533 164.522L369.032 128.436ZM220.972 130.168L283.473 166.254C285.33 167.325 286.473 169.306 286.473 171.45V243.62C286.473 245.764 285.33 247.745 283.473 248.817L220.972 284.902C219.115 285.974 216.828 285.974 214.972 284.902L152.47 248.817C150.614 247.745 149.47 245.764 149.47 243.62V171.45C149.47 169.306 150.614 167.325 152.47 166.254L214.972 130.168C216.828 129.096 219.115 129.096 220.972 130.168ZM213.972 128.436C216.447 127.007 219.496 127.007 221.972 128.436L284.473 164.522C286.948 165.951 288.473 168.592 288.473 171.45V243.62C288.473 246.479 286.948 249.12 284.473 250.549L221.972 286.634C219.496 288.063 216.447 288.063 213.972 286.634L151.47 250.549C148.995 249.12 147.47 246.479 147.47 243.62V171.45C147.47 168.592 148.995 165.951 151.47 164.522L213.972 128.436Z" fill="url(#paint0_radial_8672_14570)"/>
<path fill-rule="evenodd" clip-rule="evenodd" d="M357.003 38.8892L294.502 2.80385C292.645 1.73205 290.358 1.73205 288.502 2.80385L226 38.8892C224.144 39.961 223 41.9418 223 44.0854V116.256C223 118.4 224.144 120.38 226 121.452L288.502 157.538C290.358 158.609 292.645 158.609 294.502 157.538L357.003 121.452C358.86 120.38 360.003 118.4 360.003 116.256V44.0854C360.003 41.9418 358.86 39.961 357.003 38.8892ZM295.502 1.07179C293.026 -0.357268 289.977 -0.357263 287.502 1.0718L225 37.1571C222.525 38.5862 221 41.2272 221 44.0854V116.256C221 119.114 222.525 121.755 225 123.184L287.502 159.27C289.977 160.699 293.026 160.699 295.502 159.27L358.003 123.184C360.479 121.755 362.003 119.114 362.003 116.256V44.0854C362.003 41.2272 360.479 38.5862 358.003 37.1571L295.502 1.07179ZM504.38 38.8892L441.878 2.80385C440.022 1.73205 437.735 1.73205 435.878 2.80385L373.377 38.8892C371.52 39.961 370.377 41.9418 370.377 44.0854V116.256C370.377 118.4 371.52 120.38 373.377 121.452L435.878 157.538C437.735 158.609 440.022 158.609 441.878 157.538L504.38 121.452C506.236 120.38 507.38 118.4 507.38 116.256V44.0854C507.38 41.9418 506.236 39.961 504.38 38.8892ZM442.878 1.07179C440.403 -0.357268 437.353 -0.357263 434.878 1.0718L372.377 37.1571C369.901 38.5862 368.377 41.2272 368.377 44.0854V116.256C368.377 119.114 369.901 121.755 372.377 123.184L434.878 159.27C437.353 160.699 440.403 160.699 442.878 159.27L505.38 123.184C507.855 121.755 509.38 119.114 509.38 116.256V44.0854C509.38 41.2272 507.855 38.5862 505.38 37.1571L442.878 1.07179ZM73.5017 130.533L136.003 166.618C137.86 167.69 139.003 169.67 139.003 171.814V243.985C139.003 246.128 137.86 248.109 136.003 249.181L73.5017 285.266C71.6453 286.338 69.3581 286.338 67.5017 285.266L5.00001 249.181C3.1436 248.109 2 246.128 2 243.985V171.814C2 169.67 3.1436 167.69 5 166.618L67.5017 130.533C69.3581 129.461 71.6453 129.461 73.5017 130.533ZM66.5017 128.8C68.9769 127.371 72.0265 127.371 74.5017 128.8L137.003 164.886C139.479 166.315 141.003 168.956 141.003 171.814V243.985C141.003 246.843 139.479 249.484 137.003 250.913L74.5017 286.998C72.0265 288.427 68.9769 288.427 66.5017 286.998L4.00001 250.913C1.5248 249.484 0 246.843 0 243.985V171.814C0 168.956 1.52479 166.315 4 164.886L66.5017 128.8ZM430.533 166.254L368.032 130.168C366.175 129.096 363.888 129.096 362.032 130.168L299.53 166.254C297.674 167.325 296.53 169.306 296.53 171.45V243.62C296.53 245.764 297.674 247.745 299.53 248.817L362.032 284.902C363.888 285.974 366.175 285.974 368.032 284.902L430.533 248.817C432.39 247.745 433.533 245.764 433.533 243.62V171.45C433.533 169.306 432.39 167.325 430.533 166.254ZM369.032 128.436C366.557 127.007 363.507 127.007 361.032 128.436L298.53 164.522C296.055 165.951 294.53 168.592 294.53 171.45V243.62C294.53 246.479 296.055 249.12 298.53 250.549L361.032 286.634C363.507 288.063 366.557 288.063 369.032 286.634L431.533 250.549C434.009 249.12 435.533 246.479 435.533 243.62V171.45C435.533 168.592 434.009 165.951 431.533 164.522L369.032 128.436ZM220.972 130.168L283.473 166.254C285.33 167.325 286.473 169.306 286.473 171.45V243.62C286.473 245.764 285.33 247.745 283.473 248.817L220.972 284.902C219.115 285.974 216.828 285.974 214.972 284.902L152.47 248.817C150.614 247.745 149.47 245.764 149.47 243.62V171.45C149.47 169.306 150.614 167.325 152.47 166.254L214.972 130.168C216.828 129.096 219.115 129.096 220.972 130.168ZM213.972 128.436C216.447 127.007 219.496 127.007 221.972 128.436L284.473 164.522C286.948 165.951 288.473 168.592 288.473 171.45V243.62C288.473 246.479 286.948 249.12 284.473 250.549L221.972 286.634C219.496 288.063 216.447 288.063 213.972 286.634L151.47 250.549C148.995 249.12 147.47 246.479 147.47 243.62V171.45C147.47 168.592 148.995 165.951 151.47 164.522L213.972 128.436Z" fill="url(#paint1_radial_8672_14570)"/>
<defs>
<radialGradient id="paint0_radial_8672_14570" cx="0" cy="0" r="1" gradientUnits="userSpaceOnUse" gradientTransform="translate(199.063 355.762) rotate(-55.4474) scale(368.501 387.263)">
<stop stop-color="#17D4A7" stop-opacity="0.5"/>
<stop offset="1" stop-color="#17D4A7" stop-opacity="0"/>
</radialGradient>
<radialGradient id="paint1_radial_8672_14570" cx="0" cy="0" r="1" gradientUnits="userSpaceOnUse" gradientTransform="translate(174.563 124.262) rotate(57.5103) scale(119.148 103.888)">
<stop stop-color="#174BFF"/>
<stop offset="1" stop-color="#174BFF" stop-opacity="0"/>
</radialGradient>
</defs>
</svg>

<svg xmlns="http://www.w3.org/2000/svg" width="510" height="289" fill="none">
  <path fill="url(#a)" fill-rule="evenodd" d="M357.003 38.89 294.502 2.803a6 6 0 0 0-6 0L226 38.889a6 6 0 0 0-3 5.196v72.171a6 6 0 0 0 3 5.196l62.502 36.086a6 6 0 0 0 6 0l62.501-36.086a6 6 0 0 0 3-5.196v-72.17a6 6 0 0 0-3-5.197M295.502 1.071a8 8 0 0 0-8 0L225 37.157a8 8 0 0 0-4 6.928v72.171a8 8 0 0 0 4 6.928l62.502 36.086a8 8 0 0 0 8 0l62.501-36.086a8 8 0 0 0 4-6.928v-72.17c0-2.859-1.524-5.5-4-6.929zM504.38 38.889 441.878 2.804a6 6 0 0 0-6 0l-62.501 36.085a6 6 0 0 0-3 5.196v72.171a6 6 0 0 0 3 5.196l62.501 36.086a6 6 0 0 0 6 0l62.502-36.086a6 6 0 0 0 3-5.196v-72.17a6 6 0 0 0-3-5.197M442.878 1.072a8 8 0 0 0-8 0l-62.501 36.085a8 8 0 0 0-4 6.928v72.171a8 8 0 0 0 4 6.928l62.501 36.086a8 8 0 0 0 8 0l62.502-36.086a8 8 0 0 0 4-6.928v-72.17a8 8 0 0 0-4-6.929zM73.502 130.533l62.501 36.085a6 6 0 0 1 3 5.196v72.171a6 6 0 0 1-3 5.196l-62.501 36.085a6 6 0 0 1-6 0L5 249.181a6 6 0 0 1-3-5.196v-72.171a6 6 0 0 1 3-5.196l62.502-36.085a6 6 0 0 1 6 0m-7-1.733a8 8 0 0 1 8 0l62.501 36.086a8 8 0 0 1 4 6.928v72.171a8 8 0 0 1-4 6.928l-62.501 36.085a8 8 0 0 1-8 0L4 250.913a8 8 0 0 1-4-6.928v-72.171a8 8 0 0 1 4-6.928zm364.031 37.454-62.501-36.086a6 6 0 0 0-6 0l-62.502 36.086a6 6 0 0 0-3 5.196v72.17a6 6 0 0 0 3 5.197l62.502 36.085a6 6 0 0 0 6 0l62.501-36.085a6 6 0 0 0 3-5.197v-72.17a6 6 0 0 0-3-5.196m-61.501-37.818a8 8 0 0 0-8 0l-62.502 36.086a8 8 0 0 0-4 6.928v72.17a8 8 0 0 0 4 6.929l62.502 36.085a8 8 0 0 0 8 0l62.501-36.085a8 8 0 0 0 4-6.929v-72.17a8 8 0 0 0-4-6.928zm-148.06 1.732 62.501 36.086a6 6 0 0 1 3 5.196v72.17a6 6 0 0 1-3 5.197l-62.501 36.085a6 6 0 0 1-6 0l-62.502-36.085a6 6 0 0 1-3-5.197v-72.17a6 6 0 0 1 3-5.196l62.502-36.086a6 6 0 0 1 6 0m-7-1.732a8 8 0 0 1 8 0l62.501 36.086a8 8 0 0 1 4 6.928v72.17a8 8 0 0 1-4 6.929l-62.501 36.085a8 8 0 0 1-8 0l-62.502-36.085a8 8 0 0 1-4-6.929v-72.17a8 8 0 0 1 4-6.928z" clip-rule="evenodd"/>
  <path fill="url(#b)" fill-rule="evenodd" d="M357.003 38.89 294.502 2.803a6 6 0 0 0-6 0L226 38.889a6 6 0 0 0-3 5.196v72.171a6 6 0 0 0 3 5.196l62.502 36.086a6 6 0 0 0 6 0l62.501-36.086a6 6 0 0 0 3-5.196v-72.17a6 6 0 0 0-3-5.197M295.502 1.071a8 8 0 0 0-8 0L225 37.157a8 8 0 0 0-4 6.928v72.171a8 8 0 0 0 4 6.928l62.502 36.086a8 8 0 0 0 8 0l62.501-36.086a8 8 0 0 0 4-6.928v-72.17c0-2.859-1.524-5.5-4-6.929zM504.38 38.889 441.878 2.804a6 6 0 0 0-6 0l-62.501 36.085a6 6 0 0 0-3 5.196v72.171a6 6 0 0 0 3 5.196l62.501 36.086a6 6 0 0 0 6 0l62.502-36.086a6 6 0 0 0 3-5.196v-72.17a6 6 0 0 0-3-5.197M442.878 1.072a8 8 0 0 0-8 0l-62.501 36.085a8 8 0 0 0-4 6.928v72.171a8 8 0 0 0 4 6.928l62.501 36.086a8 8 0 0 0 8 0l62.502-36.086a8 8 0 0 0 4-6.928v-72.17a8 8 0 0 0-4-6.929zM73.502 130.533l62.501 36.085a6 6 0 0 1 3 5.196v72.171a6 6 0 0 1-3 5.196l-62.501 36.085a6 6 0 0 1-6 0L5 249.181a6 6 0 0 1-3-5.196v-72.171a6 6 0 0 1 3-5.196l62.502-36.085a6 6 0 0 1 6 0m-7-1.733a8 8 0 0 1 8 0l62.501 36.086a8 8 0 0 1 4 6.928v72.171a8 8 0 0 1-4 6.928l-62.501 36.085a8 8 0 0 1-8 0L4 250.913a8 8 0 0 1-4-6.928v-72.171a8 8 0 0 1 4-6.928zm364.031 37.454-62.501-36.086a6 6 0 0 0-6 0l-62.502 36.086a6 6 0 0 0-3 5.196v72.17a6 6 0 0 0 3 5.197l62.502 36.085a6 6 0 0 0 6 0l62.501-36.085a6 6 0 0 0 3-5.197v-72.17a6 6 0 0 0-3-5.196m-61.501-37.818a8 8 0 0 0-8 0l-62.502 36.086a8 8 0 0 0-4 6.928v72.17a8 8 0 0 0 4 6.929l62.502 36.085a8 8 0 0 0 8 0l62.501-36.085a8 8 0 0 0 4-6.929v-72.17a8 8 0 0 0-4-6.928zm-148.06 1.732 62.501 36.086a6 6 0 0 1 3 5.196v72.17a6 6 0 0 1-3 5.197l-62.501 36.085a6 6 0 0 1-6 0l-62.502-36.085a6 6 0 0 1-3-5.197v-72.17a6 6 0 0 1 3-5.196l62.502-36.086a6 6 0 0 1 6 0m-7-1.732a8 8 0 0 1 8 0l62.501 36.086a8 8 0 0 1 4 6.928v72.17a8 8 0 0 1-4 6.929l-62.501 36.085a8 8 0 0 1-8 0l-62.502-36.085a8 8 0 0 1-4-6.929v-72.17a8 8 0 0 1 4-6.928z" clip-rule="evenodd"/>
  <defs>
    <radialGradient id="a" cx="0" cy="0" r="1" gradientTransform="rotate(-55.447 438.005 -11.508)scale(368.501 387.263)" gradientUnits="userSpaceOnUse">
      <stop stop-color="#17D4A7" stop-opacity=".5"/>
      <stop offset="1" stop-color="#17D4A7" stop-opacity="0"/>
    </radialGradient>
    <radialGradient id="b" cx="0" cy="0" r="1" gradientTransform="matrix(64.0001 100.49991 -87.62828 55.80323 174.563 124.262)" gradientUnits="userSpaceOnUse">
      <stop stop-color="#174BFF"/>
      <stop offset="1" stop-color="#174BFF" stop-opacity="0"/>
    </radialGradient>
  </defs>
</svg>
